!!!!SEGMENT: Ric1002c-Requiem-Gradual.krn
!!!id: Ric1002c
!!!AGN: Mass; Gradual
!!!SCT: Elzinga (1979)
!!!voices: 6
!!!COM: Jean Richafort
!!!OTL: Gradual
!!!OPR: Requiem
**kern	**kern	**kern	**kern	**kern	**kern
*part6	*part5	*part4	*part3	*part2	*part1
*staff6	*staff5	*staff4	*staff3	*staff2	*staff1
*I"Bassus	*I"Tenor III	*I"Tenor II	*I"Tenor I	*I"Altus	*I"Superius
*I'B	*I'T. III	*I'T. II	*I'T. I	*I'A	*I'S
*clefF4	*clefGv2	*clefGv2	*clefGv2	*clefGv2	*clefG2
*k[]	*k[]	*k[]	*k[]	*k[]	*k[]
*C:	*C:	*C:	*C:	*C:	*C:
*M2/1	*M2/1	*M2/1	*M2/1	*M2/1	*M2/1
*met(C|)	*met(C|)	*met(C|)	*met(C|)	*met(C|)	*met(C|)
!!section: In medio umbrae
!!!OMD: In medio umbrae
=1	=1	=1	=1	=1	=1
!	!LO:TX:a:t=Canon&colon; tenor III/tenor II at the fourth	!	!	!	!
0F	0r	0r	0r	0r	0r
=2	=2	=2	=2	=2	=2
1G	0r	0r	0r	0r	0r
[1A	.	.	.	.	.
=3	=3	=3	=3	=3	=3
2A]	0r	0r	0F	[0c	0r
2A	.	.	.	.	.
2.A	.	.	.	.	.
8GL	.	.	.	.	.
8FJ	.	.	.	.	.
=4	=4	=4	=4	=4	=4
1E	0r	0r	1G	0c]	0r
1F	.	.	[1A	.	.
=5	=5	=5	=5	=5	=5
0D	0r	0r	2A]	0d	0f
.	.	.	2A	.	.
.	.	.	1A	.	.
=6	=6	=6	=6	=6	=6
1C	0r	0r	1.c	0e	0g
[1c	.	.	.	.	.
.	.	.	2B	.	.
=7	=7	=7	=7	=7	=7
2c]	0F	0r	2.A	0c	1.a
2B	.	.	.	.	.
.	.	.	4G	.	.
2.A	.	.	[1c	.	.
.	.	.	.	.	2a
4G	.	.	.	.	.
=8	=8	=8	=8	=8	=8
1.F	1F	0r	2c]	1r	1a
.	.	.	2B	.	.
.	1F	.	2A	[1c	[1cc
4E	.	.	4G	.	.
4D	.	.	4F	.	.
=9	=9	=9	=9	=9	=9
0C	0G	0c	1E	2c]	2cc]
.	.	.	.	2d	4b
.	.	.	.	.	4a
.	.	.	[1c	1e	1g
=10	=10	=10	=10	=10	=10
1.F	0F	1c	2c]	1f	0a
.	.	.	2B	.	.
.	.	1c	2A	1F	.
2E	.	.	2G	.	.
=11	=11	=11	=11	=11	=11
2.D	1F	0d	2F	1A	0r
.	.	.	2E	.	.
4C	.	.	.	.	.
1BB	1G	.	1D	1B	.
=12	=12	=12	=12	=12	=12
1AA	[0A	0c	1E	0c	[0a
2.A	.	.	1AA	.	.
4G	.	.	.	.	.
=13	=13	=13	=13	=13	=13
4F	0A]	1c	1r	2r	1.a]
4E	.	.	.	.	.
2.F	.	.	.	2F	.
.	.	1d	1F	2.A	.
4E	.	.	.	.	.
2D	.	.	.	.	4g
.	.	.	.	4B	4f
=14	=14	=14	=14	=14	=14
1.C	0r	[0e	1.E	4c	2a
.	.	.	.	4d	.
.	.	.	.	1e	2g
.	.	.	.	.	[1g
2D	.	.	2F	4d	.
.	.	.	.	4c	.
=15	=15	=15	=15	=15	=15
1E	0r	0e]	1G	4B	2g]
.	.	.	.	4A	.
.	.	.	.	2B	2f
1AA	.	.	[1A	1c	2.e
.	.	.	.	.	4d
=16	=16	=16	=16	=16	=16
0D	0r	0r	2A]	1d	0f
.	.	.	4D	.	.
.	.	.	4E	.	.
.	.	.	4F	[1A	.
.	.	.	4G	.	.
.	.	.	4A	.	.
.	.	.	4B	.	.
=17	=17	=17	=17	=17	=17
0AA	0r	0r	2c	2A]	0e
.	.	.	1d	4G	.
.	.	.	.	4F	.
.	.	.	.	1E	.
.	.	.	2c	.	.
=18	=18	=18	=18	=18	=18
[0D	1r	0r	2B	1.F	2.d
.	.	.	2A	.	.
.	.	.	.	.	4e
.	[1A	.	[1d	.	4f
.	.	.	.	.	4g
.	.	.	.	[2f	[2a
=19	=19	=19	=19	=19	=19
0D]	1A]	0r	2d]	2f]	2a]
.	.	.	4c	4e	1g
.	.	.	4B	4d	.
.	1A	.	1A	1d	.
.	.	.	.	.	2f#i
=20	=20	=20	=20	=20	=20
1r	1B	1r	1.G	2r	0g
.	.	.	.	2G	.
[1C	1G	[1e	.	1c	.
.	.	.	2F	.	.
=21	=21	=21	=21	=21	=21
1C]	0A	1e]	2.E	1.c	0r
.	.	.	4D	.	.
1AA	.	1e	1E	.	.
.	.	.	.	2B	.
=22	=22	=22	=22	=22	=22
0D	0F	1f	2r	2A	1r
.	.	.	2A	2F	.
.	.	1d	2B	1f	1d
.	.	.	[2A	.	.
=23	=23	=23	=23	=23	=23
0AA	1r	0e	2A]	1e	1a
.	.	.	4G	.	.
.	.	.	4F	.	.
.	[1A	.	4E	1c	1a
.	.	.	4D	.	.
.	.	.	2E	.	.
=24	=24	=24	=24	=24	=24
2r	1A]	0c	1F	1.f	0a
1F	.	.	.	.	.
.	1A	.	1r	.	.
2F	.	.	.	2e	.
=25	=25	=25	=25	=25	=25
1G	1B	1r	0r	1d	1g
1C	1G	[1e	.	1c	[1cc
=26	=26	=26	=26	=26	=26
1.c	0A	1e]	1r	0r	2cc]
.	.	.	.	.	2b
.	.	1e	[1c	.	[1a
2B	.	.	.	.	.
=27	=27	=27	=27	=27	=27
2A	0F	1f	1c]	0r	0a_
2G	.	.	.	.	.
1F	.	1d	1A	.	.
=28	=28	=28	=28	=28	=28
0E	0r	0e	1c	0r	2a]
.	.	.	.	.	4g
.	.	.	.	.	4f
.	.	.	1B	.	1g
=29	=29	=29	=29	=29	=29
1.F	0r	0c	0A	1r	1a
.	.	.	.	1c	[1f
2E	.	.	.	.	.
=30	=30	=30	=30	=30	=30
2.D	0r	0r	1r	1B	2f]
.	.	.	.	.	2e
4C	.	.	.	.	.
[1D	.	.	[1F	[1A	2.d
.	.	.	.	.	4e
=31	=31	=31	=31	=31	=31
2D]	0r	0r	2F]	2A]	2f
2GG	.	.	2E	4G	2.g
.	.	.	.	4F	.
1BB	.	.	4D	1G	.
.	.	.	4C	.	4f
.	.	.	4D	.	8gL
.	.	.	.	.	8f
.	.	.	4E	.	8e
.	.	.	.	.	8dJ
=32	=32	=32	=32	=32	=32
0AA	0r	0r	2F	1.A	0c
.	.	.	2E	.	.
.	.	.	2C	.	.
.	.	.	[2c	8AL	.
.	.	.	.	8G	.
.	.	.	.	8F	.
.	.	.	.	8EJ	.
=33	=33	=33	=33	=33	=33
0r	0r	0r	4c]	2F	1r
.	.	.	4B	.	.
.	.	.	4A	2.f	.
.	.	.	4G	.	.
.	.	.	[1F	.	[1f
.	.	.	.	4e	.
.	.	.	.	4d	.
.	.	.	.	4c	.
=34	=34	=34	=34	=34	=34
0r	0r	0r	1F]	2d	1f]
.	.	.	.	1c	.
.	.	.	1G	.	1d
.	.	.	.	2B	.
=35	=35	=35	=35	=35	=35
1.A	0r	0r	1r	1c	1.e
.	.	.	[1c	[1e	.
2A	.	.	.	.	2f
=36	=36	=36	=36	=36	=36
1G	0r	0r	1c]	2e]	1g
.	.	.	.	2e	.
1G	.	.	1B	1d	1g
=37	=37	=37	=37	=37	=37
1F	0r	0r	1A	0f	[0a
1D	.	.	1d	.	.
=38	=38	=38	=38	=38	=38
0A	0r	0r	1d	1e	0a]
.	.	.	1c#i	1e	.
=39	=39	=39	=39	=39	=39
0D	0r	0r	1d	2d	1.a
.	.	.	.	1f	.
.	.	.	[1A	.	.
.	.	.	.	4e	2b
.	.	.	.	4d	.
=40	=40	=40	=40	=40	=40
0r	0F	0r	2A]	1c	1.cc
.	.	.	2B	.	.
.	.	.	[1c	1A	.
.	.	.	.	.	2b
=41	=41	=41	=41	=41	=41
0F	1F	0r	2c]	0r	2a
.	.	.	4B	.	2g
.	.	.	4A	.	.
.	1D	.	1B	.	1f
=42	=42	=42	=42	=42	=42
1G	1C	0c	0c	0r	1.e
[1A	[1F	.	.	.	.
.	.	.	.	.	2d
=43	=43	=43	=43	=43	=43
2A]	1F]	1c	0r	1.c	2c
2G	.	.	.	.	2B
1F	1F	1A	.	.	2A
.	.	.	.	2d	[2cc
=44	=44	=44	=44	=44	=44
1E	0r	1G	0r	1e	2cc]
.	.	.	.	.	2b
1F	.	[1c	.	1A	1a
=45	=45	=45	=45	=45	=45
0C	1r	1c]	1r	0e	2.g
.	.	.	.	.	4f
.	1E	1c	[1c	.	1g
=46	=46	=46	=46	=46	=46
1r	1.F	0r	2c]	1A	0a
.	.	.	2B	.	.
[1F	.	.	2.A	[1f	.
.	2E	.	.	.	.
.	.	.	4G	.	.
=47	=47	=47	=47	=47	=47
1F]	2D	1r	1A	2f]	0r
.	2C	.	.	2e	.
1G	1BB	1B	1D	1d	.
=48	=48	=48	=48	=48	=48
1A	0AA	1.c	0E	2.c	0r
.	.	.	.	4B	.
1AA	.	.	.	2A	.
.	.	2B	.	2G	.
=49	=49	=49	=49	=49	=49
0D	0r	2A	1r	2.F	1d
.	.	2G	.	.	.
.	.	.	.	4G	.
.	.	1F	1D	1A	2d
.	.	.	.	.	[2d
=50	=50	=50	=50	=50	=50
0AA	1r	0E	1A	2r	2d]
.	.	.	.	1e	4c#i
.	.	.	.	.	4B
.	1A	.	1A	.	1c#i
.	.	.	.	2e	.
=51	=51	=51	=51	=51	=51
0r	1.B	0r	1.G	2.g	1d
.	.	.	.	4f	.
.	.	.	.	2e	2r
.	2A	.	2F	2d	2f
=52	=52	=52	=52	=52	=52
1r	2G	1r	2E	4c	2g
.	.	.	.	4B	.
.	2F	.	2D	1d	2.a
1AA	1E	1e	1A	.	.
.	.	.	.	.	4b
.	.	.	.	2c	2cc
=53	=53	=53	=53	=53	=53
1.D	0D	1.f	0F	1d	2b
.	.	.	.	.	2.a
.	.	.	.	1A	.
.	.	.	.	.	4g
2C	.	2e	.	.	8aL
.	.	.	.	.	8g
.	.	.	.	.	8f
.	.	.	.	.	8eJ
=54	=54	=54	=54	=54	=54
2BB	0r	2d	1F	1r	4f
.	.	.	.	.	4e
2AA	.	2c	.	.	1a
1E	.	1B	2.G	[1e	.
.	.	.	.	.	2g
.	.	.	4F	.	.
=55	=55	=55	=55	=55	=55
0AA	1r	0A	4E	1e]	2.a
.	.	.	4C	.	.
.	.	.	1c	.	.
.	.	.	.	.	4g
.	1A	.	.	1c	2f
.	.	.	4B	.	2e
.	.	.	4A	.	.
=56	=56	=56	=56	=56	=56
0r	1.B	0r	1G	1.d	1.g
.	.	.	1r	.	.
.	2A	.	.	2c	2f
=57	=57	=57	=57	=57	=57
1r	2G	1r	2r	2B	2e
.	2F	.	2D	4A	1d
.	.	.	.	4G	.
1AA	1E	1e	2E	1A	.
.	.	.	2C	.	2c#i
=58	=58	=58	=58	=58	=58
1.D	[0Dl	1.f	1F	0A	[0dl
.	.	.	[1D	.	.
2C	.	2e	.	.	.
=59	=59	=59	=59	=59	=59
2BB	0D_	2d	2D]	0r	0d_
2AA	.	2c	4E	.	.
.	.	.	4F	.	.
1GG	.	1B	1G	.	.
=	=	=	=	=	=
00D	00D]	00A	00F	00A	00d]
=||	=||	=||	=||	=||	=||
*M2/1	*M2/1	*M2/1	*M2/1	*M2/1	*M2/1
*met(C|)	*met(C|)	*met(C|)	*met(C|)	*met(C|)	*met(C|)
!!section: Virga tua
!!!OMD: Virga tua
!	!LO:TX:a:t=Canon&colon; tenor III/tenor II at the fourth	!	!	!	!
0r	0r	0r	0D	0d	0r
=60	=60	=60	=60	=60	=60
0r	0r	0r	1.F	1c	[0a
.	.	.	.	[1f	.
.	.	.	4E	.	.
.	.	.	4D	.	.
=61	=61	=61	=61	=61	=61
0r	0r	0r	2.F	1f]	0a]
.	.	.	4G	.	.
.	.	.	1A	1e	.
=62	=62	=62	=62	=62	=62
0r	0r	0r	1.B-X	1.d	0f
.	.	.	4A	4c	.
.	.	.	4G	4B	.
=63	=63	=63	=63	=63	=63
0r	0r	0r	1F	1c	[0a
.	.	.	1D	1d	.
=64	=64	=64	=64	=64	=64
0r	0r	0r	1.F	1.A	1.a]
.	.	.	4E	2B	4g
.	.	.	4D	.	4f
=65	=65	=65	=65	=65	=65
0r	0r	0r	1.C	2c	1e
.	.	.	.	2d	.
.	.	.	.	[1e	[1g
.	.	.	2D	.	.
=66	=66	=66	=66	=66	=66
0r	0r	0r	1E	2e]	1g]
.	.	.	.	2d	.
.	.	.	1F	[1d	1f
=67	=67	=67	=67	=67	=67
0r	0r	0r	1G	1d]	0e
.	.	.	1A	1c#i	.
=68	=68	=68	=68	=68	=68
0r	0r	0r	1r	0d	[0d
.	.	.	[1D	.	.
=69	=69	=69	=69	=69	=69
0r	0r	0r	2D]	1r	0d]
.	.	.	2E	.	.
.	.	.	2F	[1d	.
.	.	.	2D	.	.
=70	=70	=70	=70	=70	=70
0r	0r	0r	2F	1d]	0r
.	.	.	2G	.	.
.	.	.	2A	1c	.
.	.	.	2F	.	.
=71	=71	=71	=71	=71	=71
0r	0r	0r	0B-i	1d	1r
.	.	.	.	[1f	[1d
=72	=72	=72	=72	=72	=72
0r	0r	0r	0A	2f]	1d]
.	.	.	.	4e	.
.	.	.	.	4d	.
.	.	.	.	1e	1c
=73	=73	=73	=73	=73	=73
0r	0r	0r	0r	1f	1d
.	.	.	.	[1d	[1f
=74	=74	=74	=74	=74	=74
0r	0r	0r	1.D	1d]	2f]
.	.	.	.	.	4e
.	.	.	.	.	4d
.	.	.	.	2r	2f
.	.	.	2E	[2c	2g
=75	=75	=75	=75	=75	=75
0r	0r	0r	2F	2c]	1a
.	.	.	2D	2d	.
.	.	.	[1A	2e	[1cc
.	.	.	.	2c	.
=76	=76	=76	=76	=76	=76
0r	0r	0r	1A]	2.f	2cc]
.	.	.	.	.	2a
.	.	.	.	4e	.
.	.	.	2r	2d	2b
.	.	.	[2A	2c	[2cc
=77	=77	=77	=77	=77	=77
0r	0r	0r	2A]	1f	2cc]
.	.	.	2B	.	4b
.	.	.	.	.	4a
.	.	.	2c	1e	2g
.	.	.	2A	.	[2a
=78	=78	=78	=78	=78	=78
0r	0r	0r	2d	1d	4a]
.	.	.	.	.	4g
.	.	.	1D	.	4f
.	.	.	.	.	4e
.	.	.	.	2r	2f
.	.	.	2E	[2c	2g
=79	=79	=79	=79	=79	=79
0r	0r	0r	2F	2c]	2a
.	.	.	2D	2d	2b
.	.	.	[1A	2e	[1cc
.	.	.	.	2c	.
=80	=80	=80	=80	=80	=80
0r	0r	0r	2A]	2.f	2cc]
.	.	.	2F	.	2a
.	.	.	.	4e	.
.	.	.	2G	2d	2b
.	.	.	[2A	2c	[2cc
=81	=81	=81	=81	=81	=81
0r	0r	0r	4A]	1A	4cc]
.	.	.	4B	.	4b
.	.	.	4c	.	1a
.	.	.	4d	.	.
.	.	.	1B	[1d	.
.	.	.	.	.	2g#i
=82	=82	=82	=82	=82	=82
0r	0r	0r	0A	2d]	[0a
.	.	.	.	4c	.
.	.	.	.	4B	.
.	.	.	.	1c	.
=83	=83	=83	=83	=83	=83
0r	0r	0r	1r	1d	0a_
.	.	.	1D	[1f	.
=84	=84	=84	=84	=84	=84
0r	0r	0r	1A	2f]	0a_
.	.	.	.	4e	.
.	.	.	.	4d	.
.	.	.	2.A	1e	.
.	.	.	4B	.	.
=85	=85	=85	=85	=85	=85
0r	0r	0r	4c	1r	0a]
.	.	.	4A	.	.
.	.	.	1d	.	.
.	.	.	.	1A	.
.	.	.	2c	.	.
=86	=86	=86	=86	=86	=86
0r	0r	0r	2.B	1d	1r
.	.	.	4A	.	.
.	.	.	2G	1d	1d
.	.	.	4F	.	.
.	.	.	4E	.	.
=87	=87	=87	=87	=87	=87
0r	0r	0r	0D	1.f	1a
.	.	.	.	.	1a
.	.	.	.	4e	.
.	.	.	.	4d	.
=88	=88	=88	=88	=88	=88
0r	0r	0r	1r	2e	1cc
.	.	.	.	2f	.
.	.	.	1D	1d	2b
.	.	.	.	.	[2a
=89	=89	=89	=89	=89	=89
0r	0r	0r	1A	0c	4a]
.	.	.	.	.	4g
.	.	.	.	.	4f
.	.	.	.	.	4e
.	.	.	2.A	.	2.f
.	.	.	4B	.	4g
=90	=90	=90	=90	=90	=90
0r	0r	0r	4c	1r	0e
.	.	.	4d	.	.
.	.	.	1c	.	.
.	.	.	.	1A	.
.	.	.	4B	.	.
.	.	.	4A	.	.
=91	=91	=91	=91	=91	=91
0r	0r	0r	2.G	1d	1r
.	.	.	4A	.	.
.	.	.	4B	1d	1d
.	.	.	4c	.	.
.	.	.	[2d	.	.
=92	=92	=92	=92	=92	=92
0r	0r	0r	2d]	1e	1a
.	.	.	2c#i	.	.
.	.	.	1d	[1f	2.a
.	.	.	.	.	4b
=93	=93	=93	=93	=93	=93
0r	0r	0r	1.A	2f]	4cc
.	.	.	.	.	4dd
.	.	.	.	2e	2.cc
.	.	.	.	[1e	.
.	.	.	.	.	4b
.	.	.	[2c	.	2a
=94	=94	=94	=94	=94	=94
0r	0r	0r	2c]	1e]	2g
.	.	.	2A	.	2a
.	.	.	1G	2r	1b
.	.	.	.	[2d	.
=95	=95	=95	=95	=95	=95
0r	0r	0r	1F	2d]	2r
.	.	.	.	2c	1a
.	.	.	1r	2d	.
.	.	.	.	2e	2g
=96	=96	=96	=96	=96	=96
0r	0r	0r	0r	2.f	2a
.	.	.	.	.	2.cc
.	.	.	.	4e	.
.	.	.	.	2e	.
.	.	.	.	.	4b
.	.	.	.	2d	2b
=97	=97	=97	=97	=97	=97
0r	0r	0r	2r	1f	2a
.	.	.	1A	.	2.cc
.	.	.	.	[1e	.
.	.	.	.	.	4b
.	.	.	2G	.	2b
=98	=98	=98	=98	=98	=98
0r	0r	0r	2A	1e]	1a
.	.	.	2.c	.	.
.	.	.	.	2r	1g
.	.	.	4B	.	.
.	.	.	[2B	[2d	.
=99	=99	=99	=99	=99	=99
0r	0r	0r	2B]	2d]	2r
.	.	.	4A	4c	2.f
.	.	.	4G	4B	.
.	.	.	2B	2d	.
.	.	.	.	.	4e
.	.	.	2A	[2c	4f
.	.	.	.	.	4g
=100	=100	=100	=100	=100	=100
0r	0r	0r	4F	4c]	4a
.	.	.	4G	4B	4b
.	.	.	4A	4A	2.cc
.	.	.	4B	4G	.
.	.	.	2c	2F	.
.	.	.	.	.	4b
.	.	.	[2d	[2f	2b
=101	=101	=101	=101	=101	=101
0r	0r	0r	2d]	4f]	2a
.	.	.	.	4e	.
.	.	.	4c	2e	2.cc
.	.	.	4B	.	.
.	.	.	2A	2c	.
.	.	.	.	.	4b
.	.	.	[2G	[2d	[2b
=102	=102	=102	=102	=102	=102
0r	0r	0r	4G]	4d]	4b]
.	.	.	4F	4A	4a
.	.	.	2A	2c	1a
.	.	.	1E	1B	.
.	.	.	.	.	2g#i
=103	=103	=103	=103	=103	=103
0r	0r	0r	2r	1A	[0a
.	.	.	2A	.	.
.	.	.	2F	2r	.
.	.	.	[2A	2A	.
=104	=104	=104	=104	=104	=104
0r	0r	0r	4A]	2F	0a]
.	.	.	4G	.	.
.	.	.	4F	2.A	.
.	.	.	4E	.	.
.	.	.	2.F	.	.
.	.	.	.	4B	.
.	.	.	.	4c	.
.	.	.	8EL	4d	.
.	.	.	8DJ	.	.
=105	=105	=105	=105	=105	=105
0r	0r	0r	2C	2e	1r
.	.	.	2D	1d	.
.	.	.	2E	.	2r
.	.	.	[2F	2c	2a
=106	=106	=106	=106	=106	=106
1r	0r	0r	2F]	1d	2f
.	.	.	2D	.	2.a
2r	.	.	1A	[1c	.
.	.	.	.	.	4g
2A	.	.	.	.	2e
=107	=107	=107	=107	=107	=107
2F	0r	0r	0r	1c]	2.f
2.A	.	.	.	.	.
.	.	.	.	.	4d
.	.	.	.	2r	1e
4G	.	.	.	.	.
2E	.	.	.	[2c	.
=108	=108	=108	=108	=108	=108
2F	0r	0r	2r	2c]	2r
2D	.	.	2.A	2d	1d
1A	.	.	.	1e	.
.	.	.	4B	.	.
.	.	.	2c	.	2c
=109	=109	=109	=109	=109	=109
0D	0r	0r	2A	1f	2.d
.	.	.	1d	.	.
.	.	.	.	.	4e
.	.	.	.	2d	2f
.	.	.	4c	[2f	2d
.	.	.	4B	.	.
=110	=110	=110	=110	=110	=110
2.D	0r	0r	0A	4f]	2.f
.	.	.	.	4e	.
.	.	.	.	2d	.
4E	.	.	.	.	4g
2F	.	.	.	2c	4a
.	.	.	.	.	4b-i
2D	.	.	.	[2d	[2a
=111	=111	=111	=111	=111	=111
2F	0r	0r	2r	4d]	4a]
.	.	.	.	4c	4g
2G	.	.	1d	2B	1g
1D	.	.	.	1A	.
.	.	.	2d	.	2f#i
=112	=112	=112	=112	=112	=112
1r	0r	0r	1B	4G	0g
.	.	.	.	4A	.
.	.	.	.	4B	.
.	.	.	.	4c	.
[1G	.	.	2.G	4d	.
.	.	.	.	4G	.
.	.	.	.	[2g	.
.	.	.	4A	.	.
=113	=113	=113	=113	=113	=113
2G]	0r	0r	2B	4g]	1r
.	.	.	.	4f	.
2C	.	.	1c	4e	.
.	.	.	.	4d	.
2C	.	.	.	2e	[1g
[2G	.	.	4B	2d	.
.	.	.	4A	.	.
=114	=114	=114	=114	=114	=114
4G]	0r	0r	1B	1r	1g]
4F	.	.	.	.	.
4E	.	.	.	.	.
4D	.	.	.	.	.
1E	.	.	1c	1e	1g
=115	=115	=115	=115	=115	=115
1.D	0r	0r	2.F	1.f	2.a
.	.	.	4E	.	4g
.	.	.	2D	.	4a
.	.	.	.	.	4b
2AA	.	.	2C	2e	2cc
=116	=116	=116	=116	=116	=116
2BB	0r	0r	2D	2d	2b
2C	.	.	2E	2c	1a
2D	.	.	2F	1B	.
2E	.	.	[2E	.	2g
=117	=117	=117	=117	=117	=117
0AA	1r	0r	4E]	4A	1a
.	.	.	4C	4B	.
.	.	.	1c	4c	.
.	.	.	.	4d	.
.	1A	.	.	2e	1cc
.	.	.	4B	2f	.
.	.	.	4A	.	.
=118	=118	=118	=118	=118	=118
1r	1.B	0r	4G	2g	2.b-X
.	.	.	4A	.	.
.	.	.	4B	2.d	.
.	.	.	4c	.	4a
2r	.	.	2.d	.	2g
.	.	.	.	4c	.
2D	2A	.	.	2f	2f
.	.	.	4c	.	.
=119	=119	=119	=119	=119	=119
2E	2G	1r	4B	2e	0g
.	.	.	4A	.	.
2F	2F	.	1d	2d	.
2G	1E	1e	.	1e	.
2C	.	.	2c#i	.	.
=120	=120	=120	=120	=120	=120
1F	0D	1.f	0d	1A	1f
2.D	.	.	.	[1f	[1a
.	.	2e	.	.	.
4E	.	.	.	.	.
=121	=121	=121	=121	=121	=121
4F	0r	2d	0r	2f]	1a]
4G	.	.	.	.	.
1A	.	2c	.	2e	.
.	.	1B	.	1d	1b
2G	.	.	.	.	.
=122	=122	=122	=122	=122	=122
2A	1r	0A	0r	0c	2.cc
2.F	.	.	.	.	.
.	.	.	.	.	4b
.	1A	.	.	.	4a
4G	.	.	.	.	4g
4F	.	.	.	.	[2a
4D	.	.	.	.	.
=123	=123	=123	=123	=123	=123
1G	1.B	0r	1d	2r	2a]
.	.	.	.	1g	2g
1D	.	.	2.d	.	1a
.	2A	.	.	2f	.
.	.	.	4c	.	.
=124	=124	=124	=124	=124	=124
1r	2G	1r	2B	2e	2r
.	2F	.	1A	2d	2d
1G	1E	1e	.	1e	2d
.	.	.	2G	.	2c#i
=125	=125	=125	=125	=125	=125
2.F	0D	1.f	0A	2r	2.d
.	.	.	.	2A	.
4E	.	.	.	.	4e
2D	.	.	.	[1d	4f
.	.	.	.	.	4g
2C	.	2e	.	.	4a
.	.	.	.	.	4f
=126	=126	=126	=126	=126	=126
2BB	0r	2d	2r	2d]	2g
2AA	.	2c	2.E	2.e	2a
1E	.	1B	.	.	4g
.	.	.	4F	4d	4f
.	.	.	4G	2e	4e
.	.	.	8FL	.	4d
.	.	.	8GJ	.	.
=127	=127	=127	=127	=127	=127
0AA	1r	0A	2.A	2f	2.c
.	.	.	.	2.e	.
.	.	.	8GL	.	4d
.	.	.	8FJ	.	.
.	1A	.	2E	.	2e
.	.	.	.	4d	.
.	.	.	2A	2c	2f
=128	=128	=128	=128	=128	=128
2.GG	1.B	0r	2D	2d	2.g
.	.	.	1d	2G	.
4AA	.	.	.	.	4f
2BB	.	.	.	1r	2d
[2C	2A	.	[2c	.	[2e
=129	=129	=129	=129	=129	=129
2C]	2G	1r	4c]	1r	2e]
.	.	.	4B	.	.
2D	2F	.	4A	.	1d
.	.	.	4G	.	.
1AA	1E	1e	1A	2r	.
.	.	.	.	2c	2c#i
=130	=130	=130	=130	=130	=130
1.D	[0Dl	1.f	1F	2B	2d
.	.	.	.	2A	2.dd
.	.	.	1D	1d	.
.	.	.	.	.	4cc
2D	.	2e	.	.	4b
.	.	.	.	.	4a
=131	=131	=131	=131	=131	=131
1GG	0D_	2d	0G	[0dl	2b
.	.	2c	.	.	1a
1GG	.	1B	.	.	.
.	.	.	.	.	2g#i
=132	=132	=132	=132	=132	=132
00Dl	00D]	00Al	00Fl	00d]	00al
==	==	==	==	==	==
*-	*-	*-	*-	*-	*-
!!!system-decoration: [*]
!!!RDF**kern: i = editorial accidental
!!!RDF**kern: l = terminal long
!!!ENC: Benjamin Ory
!!!END: 2021/4/12
!!!EED: Benjamin Ory
!!!EEV: 2021/05/02
!!!YEC: Copyright 2021 Benjamin Ory, All Rights Reserved
!!!ONB: Translated from MusicXML on 2021/05/02
